X:82
T:Man From Skye, The
C:Joe Buchanan's Scottish Tome Page 336.0
I:336 0
Z:Carl Allison
U:T=!tenuto!
R:Hornpipe
L:1/16
M:2/4
K:C
B<d | "Am"e2(e>Td) (d>e)(e>d) | (B>Te)(e>Td) B2A2 | "G"(G>TG)(G>TB) G2B2 | "G"(G>TB)(B>Td) "Em"B2d2 |
"Am"e2(e>d) (d>Te)(e>Td) | (B>Te)(e>Td) B2(A>G) | "Am"(A>TA)(A>TB) "Em"e2(d>TB) | "Am"A4 A<A :|
(B2<d2) | "Am"e2g2 a2(e>T^f) | "Em"(g>T^f)(e>Td) B2A2 | "G"(G>TG)(G>TB) G2B2 | (G>TB)(B>Td) "Em"B2d2 |
(e>Tf)(g>Te) (a2a2) | "Em"(B>Te)(e>Td) "G"B2(A>G) | "Am"(A>A)(A>B) "Em"e2(d>B) | "Am"A4 A<A B2<d2 |
"Am"e2g2 a2(e>T^f) | "Em"(g>T^f)(e>Td) B2A2 | "G"(G>TG)(G>TB) G2B2 | (G>TB)(B>Td) "Em"B2d2 |
"Am"e2(e>Td) (d>e)(e>d) | "Em"(B>Te)(e>Td) "G"B2(A>G) | "Am"(A>TA)(A>TB) "Em"e2(d>TB) | "Am"A4 A<A|]
(B>d) | "A"e2A2 A2(B>d) | (e<Tg)(e>Td) B2(A>TB) | "G"d2(TG>G) (B>TA)(B>TG) | (B>Td)(G>Td) B2d2 |
(e>TA)A2 (B>TA)(B<Td) | (e>Tg)(d>Te) "G"B2(A>G) | "Am"(A>TA)(A>TB) "Em"e2(d>B) | "Am"A4 A<A :|
(B<d) | e2(e>Td) e2(e>T^f) | (g>T^f)(e>Tg) B2A2 | "G"(G>G)(G>TB) G2B2 | "G"(G>TB)(B>Td) "Em"B2d2 |
"Am"e2(e>d) e2(e>^f) | "Em"(g>T^f)(e>Td) "G"B2(A>G) | "Am"(A>TA)(A>TB) "Em"e2(d>B) | "Am"A4 A<A (B<d) |
"Am"e2(e>d) e2(e>f) | (g>T^f)(e>Tg) B2A2 | "G"(G>TG)(G>TB) G2B2 | "G"(G>TB)(B>Td) "Em"B2d2 |
"Am"e>AA2 (B>TA)(B>Td) | (e>Tg)(d>Te) "G"B2(A>G) | "Am"(A>TA)(A>TB) "Em"e2(d>TB) | "Am"A4 A<A |]

